X:1
T:Abendlied
T:Christian Heinrich Rinck Satz: Ludwig Erk
T:Heinrich Hoffmann von Fallersleben
T:Abendlied
T:CPDL - Creative Commons Attribution Non Commercial 3.0
C:Christian Heinrich Rinck
Z:Heinrich Hoffmann von Fallersleben
Z:CPDL - Creative Commons Attribution Non Commercial 3.0
%%score [ ( 1 2 ) ( 3 4 ) ]
L:1/8
Q:1/4=100
M:4/4
K:Bb
V:1 treble-8 nm="Tenor"
V:2 treble-8 
V:3 bass nm="Bass"
V:4 bass 
V:1
"^dolce""^Mäßig langsam" d2 d2 c2 c2 | B4 F4 | G2 A2 B2 d2 | c6 z2 |"^poco cresc." d2 d2 e2 d2 | %5
w: 1. A- bend wird es|wie- der|ü- ber Wald und|Feld|säu- selt Frie- den|
w: 2. Nur der Bach er|gie- ßet|sich am Fel- sen|dort,|und er braust und|
w: 3. Und kein A- bend|brin- get|Frie- den ihm und|Ruh',|kei- ne Glo- cke|
w: 4. So in dei- nem|Stre- ben|bist, mein Herz auch|du:|Gott nur kann dir|
!>(! c4!>)! f4 | B2 e2 d2 c2 | B6 z2 |] %8
w: nie- der,|und es ruht die|Welt.|
w: flie- ßet|im- mer, im- mer|fort.|
w: klin- get|ihm ein Rast- lied|zu.|
w: ge- ben|wah- re A- bend-|ruh'.|
V:2
 B2 B2 A2 A2 | F4 F4 | G2 E2 F2 B2 | A6 x2 | B2 B2 c2 B2 | (B2 A2) B4 | G2 c2 B2 A2 | B6 x2 |] %8
V:3
"^dolce" F,2 F,2 F,2 F,2 | F,4 D,4 | E,2 E,2 D,2 F,2 | F,6 z2 |"^poco cresc." F,2 B,G, G,2 F,2 | %5
!>(! F,4!>)! F,4 | G,2 G,2 F,2 E,2 | D,6 z2 |] %8
V:4
 B,,2 D,2 F,2 E,2 | D,4 B,,4 | E,2 C,2 D,2 B,,2 | F,6 x2 | B,,2 G,2 C,2 D,E, | F,4 D,4 | %6
 E,2 C,2 F,2 F,,2 | B,,6 x2 |] %8

